assets/symbols/mulberry/rabbit_hutch.svg

<svg height="850.394" viewBox="0 0 850.394 850.394" width="850.394" xmlns="http://www.w3.org/2000/svg"><path d="m724.41 273.36h-607.97v-5.19l49.23-74.4h513.07l51.95 78.22v1.37zm-402.58 0h402.58v286.61h-602.77v-286.61zm351.16 57.57v-20.38h-299.74v194.73h299.74zm-374.13 58.39c0-6.04-4.9-10.94-10.94-10.94s-10.94 4.9-10.94 10.94 4.9 10.94 10.94 10.94 10.94-4.9 10.94-10.94z" fill="#be0000"/><g fill="#f6cc4b"><path d="m620.48 457.42h52.51v47.86h-52.51zm0-46.22h52.51v46.22h-52.51z"/><path d="m620.48 361.97h52.51v49.23h-52.51zm52.51-31.04v31.04h-52.51v-51.42h52.51zm-101.73 126.49h49.221v47.86h-49.221z"/><path d="m571.26 411.2h49.221v46.22h-49.221z"/><path d="m571.26 361.97h49.221v49.23h-49.221zm49.22-45.95v45.95h-49.22v-51.42h49.22zm-99.54 141.4h50.319v47.86h-50.319zm0-46.22h50.319v46.22h-50.319z"/><path d="m520.94 361.97h50.319v49.23h-50.319zm0-51.42h50.319v51.42h-50.319zm-48.96 146.87h48.96v47.86h-48.96zm0-46.22h48.96v46.22h-48.96z"/><path d="m471.98 361.97h48.96v49.23h-48.96zm0-51.42h48.96v51.42h-48.96zm-50.59 146.87h50.59v47.86h-50.59zm0-46.22h50.59v46.22h-50.59z"/><path d="m421.39 361.97h50.59v49.23h-50.59zm0-51.42h50.59v51.42h-50.59zm-48.14 146.87h48.14v47.86h-48.14zm0-46.22h48.14v46.22h-48.14z"/><path d="m373.25 361.97h48.14v49.23h-48.14zm48.14-51.42v51.42h-48.14v-51.42z"/></g><circle cx="287.92" cy="389.32" r="10.94"/><g fill="none" stroke="#231f20"><path d="m81.17 273.36h687m-646.53 0v385.07m602.77-386.16v385.07m-602.77-97.37h602.77m-402.58-286.61v277.86m351.16-93.8v47.86h-299.74v-194.73h299.74v100.65zm-556.55-189.25 49.23-74.4h513.07l51.95 78.22" stroke-width="28"/><circle cx="287.92" cy="389.32" r="10.94" stroke-width="14"/><path d="m339.33 331.34h33.92m298.78-.41h33.91" stroke-width="28"/><path d="m421.39 310.55v194.73m50.59-194.73v194.73m99.28-194.73v194.73m-50.32-194.73v194.73m99.54-189.26v194.73m-247.23-148.78h299.74m-299.74 95.45h299.74m-299.74-46.22h299.74" stroke-width="21"/></g><path d="m0 0h850.394v850.394h-850.394z" fill="none"/></svg>

<svg xmlns="http://www.w3.org/2000/svg" width="850.394" height="850.394" viewBox="0 0 850.394 850.394" overflow="visible"><path fill="#be0000" d="M724.41 273.36H116.44v-5.19l49.23-74.4h513.07l51.95 78.22v1.37zM321.83 273.36h402.58v286.61H121.64V273.36h200.19zm351.16 57.57v-20.38H373.25V505.28h299.74V330.93zm-374.13 58.39c0-6.04-4.9-10.94-10.94-10.94s-10.94 4.9-10.94 10.94 4.9 10.94 10.94 10.94 10.94-4.9 10.94-10.94z"/><path fill="#f6cc4b" d="M620.48 457.42h52.51v47.86h-52.51zM620.48 411.2h52.51v46.22h-52.51z"/><path fill="#f6cc4b" d="M620.48 361.97h52.51v49.23h-52.51zM672.99 330.93v31.04h-52.51v-51.42h52.51zM571.26 457.42h49.221v47.86H571.26z"/><path fill="#f6cc4b" d="M571.26 411.2h49.221v46.22H571.26z"/><path fill="#f6cc4b" d="M571.26 361.97h49.221v49.23H571.26zM620.48 316.02v45.95h-49.22v-51.42h49.22zM520.94 457.42h50.319v47.86H520.94zM520.94 411.2h50.319v46.22H520.94z"/><path fill="#f6cc4b" d="M520.94 361.97h50.319v49.23H520.94zM520.94 310.55h50.319v51.42H520.94zM471.98 457.42h48.96v47.86h-48.96zM471.98 411.2h48.96v46.22h-48.96z"/><path fill="#f6cc4b" d="M471.98 361.97h48.96v49.23h-48.96zM471.98 310.55h48.96v51.42h-48.96zM421.39 457.42h50.59v47.86h-50.59zM421.39 411.2h50.59v46.22h-50.59z"/><path fill="#f6cc4b" d="M421.39 361.97h50.59v49.23h-50.59zM421.39 310.55h50.59v51.42h-50.59zM373.25 457.42h48.14v47.86h-48.14zM373.25 411.2h48.14v46.22h-48.14z"/><path fill="#f6cc4b" d="M373.25 361.97h48.14v49.23h-48.14zM421.39 310.55v51.42h-48.14v-51.42z"/><circle cx="287.92" cy="389.32" r="10.94"/><g fill="none" stroke="#231f20"><path stroke-width="28" d="M81.17 273.36h687M121.64 273.36v385.07M724.41 272.27v385.07M121.64 559.97h602.77M321.83 273.36v277.86M672.99 457.42v47.86H373.25V310.55h299.74V411.2zM116.44 268.17l49.23-74.4h513.07l51.95 78.22"/><circle cx="287.92" cy="389.32" r="10.94" stroke-width="14"/><path stroke-width="28" d="M339.33 331.34h33.92M672.03 330.93H705.94"/><path stroke-width="21" d="M421.39 310.55V505.28M471.98 310.55V505.28M571.26 310.55V505.28M520.94 310.55V505.28M620.48 316.02v194.73M373.25 361.97h299.74M373.25 457.42h299.74M373.25 411.2h299.74"/></g><path fill="none" d="M0 0h850.394v850.394H0z"/></svg>
